;FLAVOR:RepRap
;TIME:3101
;Filament used: 2.65217m
;Layer height: 0.16
;MINX:71.85
;MINY:78.925
;MINZ:0.3
;MAXX:188.15
;MAXY:195.225
;MAXZ:4.14
;Generated with Cura_SteamEngine 4.6.1
T0
M190 S60
M104 S200
M109 S200
M82 ;absolute extrusion mode
G91 ; relative positioning
G1 Z1 ; move Z down 1mm
G90 ; absolute positioning
G28 XY ;Home xy
M561 ; clear bed transforms
G1 X100 Y65 ; naar het midden van bed
G28 Z ; home Z
G1 Z20.0 F6000 ;Move the platform down 20mm
;Prime the extruder
G1 X135 Y10
G92 E0
G1 F140 E30
G92 E0
M83 ;relative extrusion mode
G1 F1800 E-2
;LAYER_COUNT:25
;LAYER:0
M107 P1
G0 F2700 X178.336 Y78.97 Z0.3
;TYPE:SKIRT
G1 F1800 E2
G1 X178.861 Y79.026 E0.02371
G1 X179.389 Y79.107 E0.02399
G1 X179.924 Y79.218 E0.02453
G1 X180.7 Y79.432 E0.03614
G1 X181.183 Y79.595 E0.02289
G1 X181.671 Y79.79 E0.0236
G1 X182.421 Y80.146 E0.03728
G1 X182.873 Y80.393 E0.02313
G1 X183.468 Y80.768 E0.03158
G1 X184.005 Y81.16 E0.02985
G1 X184.391 Y81.47 E0.02223
G1 X184.943 Y81.975 E0.03359
G1 X185.337 Y82.384 E0.0255
G1 X185.685 Y82.781 E0.0237
G1 X186.118 Y83.339 E0.03171
G1 X186.494 Y83.897 E0.03021
G1 X186.93 Y84.654 E0.03922
G1 X187.159 Y85.118 E0.02323
G1 X187.361 Y85.587 E0.02293
G1 X187.642 Y86.371 E0.0374
G1 X187.796 Y86.9 E0.02474
G1 X187.952 Y87.595 E0.03198
G1 X188.048 Y88.211 E0.02799
G1 X188.104 Y88.72 E0.02299
G1 X188.147 Y89.77 E0.04719
G1 X188.15 Y183.866 E4.22502
G1 X188.137 Y184.809 E0.04235
G1 X188.104 Y185.409 E0.02698
G1 X188.049 Y185.943 E0.0241
G1 X187.972 Y186.437 E0.02245
G1 X187.852 Y187.016 E0.02655
G1 X187.649 Y187.758 E0.03454
G1 X187.483 Y188.25 E0.02331
G1 X187.228 Y188.873 E0.03023
G1 X186.952 Y189.449 E0.02868
G1 X186.676 Y189.959 E0.02604
G1 X186.304 Y190.547 E0.03124
G1 X185.915 Y191.08 E0.02963
G1 X185.607 Y191.464 E0.0221
G1 X185.102 Y192.015 E0.03356
G1 X184.683 Y192.417 E0.02607
G1 X184.238 Y192.805 E0.02651
G1 X183.798 Y193.146 E0.025
G1 X183.132 Y193.596 E0.03609
G1 X182.499 Y193.962 E0.03283
G1 X181.95 Y194.237 E0.02757
G1 X181.486 Y194.436 E0.02267
G1 X180.692 Y194.721 E0.03788
G1 X180.187 Y194.868 E0.02362
G1 X179.482 Y195.027 E0.03245
G1 X178.87 Y195.123 E0.02782
G1 X178.358 Y195.178 E0.02312
G1 X177.289 Y195.223 E0.04804
G1 X83.209 Y195.225 E4.2243
G1 X82.267 Y195.212 E0.0423
G1 X81.664 Y195.18 E0.02711
G1 X81.138 Y195.124 E0.02375
G1 X80.611 Y195.043 E0.02394
G1 X80.076 Y194.932 E0.02453
G1 X79.3 Y194.718 E0.03614
G1 X78.817 Y194.555 E0.02289
G1 X78.335 Y194.363 E0.0233
G1 X77.566 Y193.998 E0.03822
G1 X77.112 Y193.749 E0.02325
G1 X76.565 Y193.404 E0.02904
G1 X75.954 Y192.957 E0.03399
G1 X75.407 Y192.5 E0.032
G1 X74.946 Y192.063 E0.02852
G1 X74.565 Y191.658 E0.02497
G1 X74.068 Y191.059 E0.03495
G1 X73.766 Y190.648 E0.0229
G1 X73.459 Y190.178 E0.02521
G1 X73.074 Y189.503 E0.03489
G1 X72.837 Y189.022 E0.02408
G1 X72.58 Y188.409 E0.02985
G1 X72.374 Y187.824 E0.02785
G1 X72.207 Y187.258 E0.0265
G1 X72.048 Y186.555 E0.03236
G1 X71.954 Y185.95 E0.02749
G1 X71.895 Y185.412 E0.0243
G1 X71.852 Y184.353 E0.04759
G1 X71.85 Y90.238 E4.22587
G1 X71.863 Y89.341 E0.04028
G1 X71.896 Y88.74 E0.02703
G1 X71.952 Y88.206 E0.02411
G1 X72.028 Y87.71 E0.02253
G1 X72.148 Y87.134 E0.02642
G1 X72.351 Y86.392 E0.03454
G1 X72.52 Y85.892 E0.0237
G1 X72.772 Y85.277 E0.02984
G1 X73.048 Y84.701 E0.02868
G1 X73.327 Y84.187 E0.02626
G1 X73.696 Y83.603 E0.03102
G1 X74.085 Y83.07 E0.02963
G1 X74.393 Y82.686 E0.0221
G1 X74.904 Y82.128 E0.03397
G1 X75.312 Y81.735 E0.02544
G1 X75.706 Y81.39 E0.02351
G1 X76.264 Y80.957 E0.03171
G1 X76.822 Y80.581 E0.03021
G1 X77.579 Y80.145 E0.03922
G1 X78.043 Y79.916 E0.02323
G1 X78.512 Y79.714 E0.02293
G1 X79.308 Y79.429 E0.03796
G1 X79.813 Y79.282 E0.02362
G1 X80.518 Y79.123 E0.03245
G1 X81.13 Y79.027 E0.02782
G1 X81.642 Y78.972 E0.02312
G1 X82.711 Y78.927 E0.04804
G1 X176.791 Y78.925 E4.2243
G1 X177.734 Y78.938 E0.04235
G1 X178.336 Y78.97 E0.02707
G1 F1800 E-2
;MESH:8f0b4a18-607d-4e0d-9f3d-e59ffd86ccfe.stl
G0 F2700 X177.488 Y89.841
G0 X178.027 Y90.373
G0 X178.896 Y91.614
G0 X179.537 Y92.987
G0 X179.928 Y94.449
G0 X180.06 Y95.944
G0 X180.028 Y178.949
G0 X179.791 Y180.291
G0 X177.752 Y186.572
G0 X177.85 Y186.588
;TYPE:WALL-INNER
G1 F1800 E2
G1 X177.821 Y187.004 E0.01872
G1 X177.863 Y187.375 E0.01676
G1 X177.967 Y187.736 E0.01687
G1 X178.135 Y188.073 E0.01691
G1 X178.355 Y188.373 E0.0167
G1 X178.628 Y188.633 E0.01693
G1 X178.937 Y188.84 E0.0167
G1 X179.281 Y188.992 E0.01689
G1 X179.647 Y189.081 E0.01691
G1 X180.021 Y189.104 E0.01682
G1 X180.391 Y189.063 E0.01672
G1 X180.752 Y188.959 E0.01687
G1 X181.089 Y188.791 E0.01691
G1 X181.389 Y188.571 E0.0167
G1 X181.649 Y188.298 E0.01693
G1 X181.856 Y187.989 E0.0167
G1 X182.008 Y187.645 E0.01689
G1 X182.097 Y187.279 E0.01691
G1 X182.12 Y186.905 E0.01682
G1 X182.079 Y186.535 E0.01672
G1 X181.975 Y186.174 E0.01687
G1 X181.807 Y185.837 E0.01691
G1 X181.587 Y185.537 E0.0167
G1 X181.314 Y185.277 E0.01693
G1 X181.005 Y185.07 E0.0167
G1 X180.661 Y184.918 E0.01689
G1 X180.295 Y184.829 E0.01691
G1 X179.921 Y184.806 E0.01682
G1 X179.551 Y184.847 E0.01672
G1 X179.19 Y184.951 E0.01687
G1 X178.853 Y185.119 E0.01691
G1 X178.553 Y185.339 E0.0167
G1 X178.293 Y185.612 E0.01693
G1 X178.086 Y185.922 E0.01674
G1 X177.938 Y186.258 E0.01649
G1 X177.85 Y186.588 E0.01534
G0 F2700 X178.246 Y186.654
;TYPE:WALL-OUTER
G1 F1800 X178.223 Y186.995 E0.01535
G1 X178.257 Y187.297 E0.01365
G1 X178.341 Y187.59 E0.01369
G1 X178.478 Y187.864 E0.01376
G1 X178.657 Y188.108 E0.01359
G1 X178.879 Y188.32 E0.01378
G1 X179.131 Y188.488 E0.0136
G1 X179.41 Y188.612 E0.01371
G1 X179.707 Y188.684 E0.01372
G1 X180.011 Y188.703 E0.01368
G1 X180.313 Y188.669 E0.01365
G1 X180.606 Y188.585 E0.01369
G1 X180.88 Y188.448 E0.01376
G1 X181.124 Y188.269 E0.01359
G1 X181.336 Y188.047 E0.01378
G1 X181.504 Y187.795 E0.0136
G1 X181.628 Y187.516 E0.01371
G1 X181.7 Y187.219 E0.01372
G1 X181.719 Y186.915 E0.01368
G1 X181.685 Y186.613 E0.01365
G1 X181.601 Y186.32 E0.01369
G1 X181.464 Y186.046 E0.01376
G1 X181.285 Y185.802 E0.01359
G1 X181.063 Y185.59 E0.01378
G1 X180.811 Y185.422 E0.0136
G1 X180.532 Y185.298 E0.01371
G1 X180.235 Y185.226 E0.01372
G1 X179.931 Y185.207 E0.01368
G1 X179.629 Y185.241 E0.01365
G1 X179.336 Y185.325 E0.01369
G1 X179.062 Y185.462 E0.01376
G1 X178.818 Y185.641 E0.01359
G1 X178.606 Y185.863 E0.01378
G1 X178.438 Y186.115 E0.0136
G1 X178.316 Y186.391 E0.01355
G1 X178.246 Y186.654 E0.01222
G0 F2700 X178.233 Y186.854
G0 X177.793 Y186.825
G0 X177.735 Y186.821
G0 X171.385 Y186.881
G0 X87.808 Y186.849
G0 X81.901 Y185.818
G0 X81.398 Y185.246
G0 X80.732 Y184.881
G0 X79.98 Y184.767
G0 X79.235 Y184.914
G0 X78.586 Y185.309
G0 X77.811 Y186.571
G0 X77.909 Y186.587
;TYPE:WALL-INNER
G1 F1800 X77.88 Y187.004 E0.01877
G1 X77.922 Y187.375 E0.01676
G1 X78.026 Y187.736 E0.01687
G1 X78.194 Y188.073 E0.01691
G1 X78.414 Y188.373 E0.0167
G1 X78.687 Y188.634 E0.01696
G1 X78.998 Y188.84 E0.01675
G1 X79.34 Y188.991 E0.01679
G1 X79.704 Y189.08 E0.01683
G1 X80.079 Y189.104 E0.01687
G1 X80.451 Y189.063 E0.0168
G1 X80.811 Y188.958 E0.01684
G1 X81.147 Y188.792 E0.01683
G1 X81.448 Y188.571 E0.01677
G1 X81.709 Y188.298 E0.01696
G1 X81.915 Y187.987 E0.01675
G1 X82.066 Y187.645 E0.01679
G1 X82.155 Y187.28 E0.01687
G1 X82.179 Y186.906 E0.01683
G1 X82.138 Y186.533 E0.01685
G1 X82.033 Y186.174 E0.01679
G1 X81.867 Y185.838 E0.01683
G1 X81.646 Y185.537 E0.01677
G1 X81.373 Y185.277 E0.01693
G1 X81.064 Y185.07 E0.0167
G1 X80.72 Y184.918 E0.01689
G1 X80.354 Y184.829 E0.01691
G1 X79.98 Y184.806 E0.01682
G1 X79.609 Y184.847 E0.01676
G1 X79.249 Y184.951 E0.01683
G1 X78.912 Y185.119 E0.01691
G1 X78.612 Y185.339 E0.0167
G1 X78.352 Y185.612 E0.01693
G1 X78.145 Y185.922 E0.01674
G1 X77.997 Y186.258 E0.01649
G1 X77.909 Y186.587 E0.01529
G0 F2700 X78.305 Y186.653
;TYPE:WALL-OUTER
G1 F1800 X78.282 Y186.995 E0.01539
G1 X78.316 Y187.297 E0.01365
G1 X78.4 Y187.59 E0.01369
G1 X78.537 Y187.864 E0.01376
G1 X78.716 Y188.108 E0.01359
G1 X78.938 Y188.32 E0.01378
G1 X79.191 Y188.488 E0.01364
G1 X79.469 Y188.611 E0.01365
G1 X79.765 Y188.683 E0.01368
G1 X80.07 Y188.703 E0.01372
G1 X80.372 Y188.669 E0.01365
G1 X80.665 Y188.584 E0.0137
G1 X80.938 Y188.449 E0.01367
G1 X81.183 Y188.269 E0.01365
G1 X81.395 Y188.047 E0.01378
G1 X81.563 Y187.794 E0.01364
G1 X81.686 Y187.516 E0.01365
G1 X81.758 Y187.219 E0.01372
G1 X81.778 Y186.915 E0.01368
G1 X81.744 Y186.612 E0.01369
G1 X81.659 Y186.32 E0.01366
G1 X81.524 Y186.047 E0.01367
G1 X81.344 Y185.802 E0.01365
G1 X81.122 Y185.59 E0.01378
G1 X80.87 Y185.422 E0.0136
G1 X80.591 Y185.298 E0.01371
G1 X80.294 Y185.226 E0.01372
G1 X79.99 Y185.207 E0.01368
G1 X79.687 Y185.241 E0.01369
G1 X79.395 Y185.325 E0.01364
G1 X79.121 Y185.462 E0.01376
G1 X78.877 Y185.641 E0.01359
G1 X78.665 Y185.863 E0.01378
G1 X78.497 Y186.115 E0.0136
G1 X78.375 Y186.391 E0.01355
G1 X78.305 Y186.653 E0.01218
G0 F2700 X78.292 Y186.853
G0 X77.852 Y186.824
G0 X77.794 Y186.82
G0 X77.811 Y86.812
G0 X77.909 Y86.828
;TYPE:WALL-INNER
G1 F1800 X77.88 Y87.244 E0.01872
G1 X77.922 Y87.616 E0.01681
G1 X78.026 Y87.976 E0.01683
G1 X78.194 Y88.313 E0.01691
G1 X78.414 Y88.613 E0.0167
G1 X78.687 Y88.873 E0.01693
G1 X78.996 Y89.08 E0.0167
G1 X79.339 Y89.232 E0.01685
G1 X79.705 Y89.322 E0.01692
G1 X80.08 Y89.344 E0.01687
G1 X80.45 Y89.304 E0.01671
G1 X80.811 Y89.199 E0.01688
G1 X81.148 Y89.031 E0.01691
G1 X81.448 Y88.811 E0.0167
G1 X81.709 Y88.538 E0.01696
G1 X81.915 Y88.227 E0.01675
G1 X82.066 Y87.885 E0.01679
G1 X82.155 Y87.521 E0.01683
G1 X82.179 Y87.146 E0.01687
G1 X82.138 Y86.774 E0.0168
G1 X82.033 Y86.414 E0.01684
G1 X81.867 Y86.078 E0.01683
G1 X81.646 Y85.777 E0.01677
G1 X81.373 Y85.516 E0.01696
G1 X81.062 Y85.31 E0.01675
G1 X80.72 Y85.159 E0.01679
G1 X80.355 Y85.07 E0.01687
G1 X79.981 Y85.046 E0.01683
G1 X79.608 Y85.087 E0.01685
G1 X79.249 Y85.192 E0.01679
G1 X78.913 Y85.358 E0.01683
G1 X78.612 Y85.579 E0.01677
G1 X78.352 Y85.852 E0.01693
G1 X78.145 Y86.162 E0.01674
G1 X77.997 Y86.498 E0.01649
G1 X77.909 Y86.828 E0.01534
G0 F2700 X78.305 Y86.894
;TYPE:WALL-OUTER
G1 F1800 X78.282 Y87.235 E0.01535
G1 X78.316 Y87.538 E0.01369
G1 X78.4 Y87.83 E0.01364
G1 X78.537 Y88.104 E0.01376
G1 X78.716 Y88.348 E0.01359
G1 X78.938 Y88.56 E0.01378
G1 X79.19 Y88.728 E0.0136
G1 X79.469 Y88.852 E0.01371
G1 X79.765 Y88.925 E0.01369
G1 X80.07 Y88.943 E0.01372
G1 X80.372 Y88.91 E0.01364
G1 X80.665 Y88.825 E0.0137
G1 X80.939 Y88.688 E0.01376
G1 X81.183 Y88.509 E0.01359
G1 X81.395 Y88.287 E0.01378
G1 X81.563 Y88.034 E0.01364
G1 X81.686 Y87.756 E0.01365
G1 X81.758 Y87.46 E0.01368
G1 X81.778 Y87.155 E0.01372
G1 X81.744 Y86.853 E0.01365
G1 X81.659 Y86.56 E0.0137
G1 X81.524 Y86.287 E0.01367
G1 X81.344 Y86.042 E0.01365
G1 X81.122 Y85.83 E0.01378
G1 X80.869 Y85.662 E0.01364
G1 X80.591 Y85.539 E0.01365
G1 X80.294 Y85.467 E0.01372
G1 X79.99 Y85.447 E0.01368
G1 X79.687 Y85.481 E0.01369
G1 X79.395 Y85.566 E0.01366
G1 X79.122 Y85.701 E0.01367
G1 X78.877 Y85.881 E0.01365
G1 X78.665 Y86.103 E0.01378
G1 X78.497 Y86.355 E0.0136
G1 X78.375 Y86.631 E0.01355
G1 X78.305 Y86.894 E0.01222
G0 F2700 X78.292 Y87.094
G0 X77.852 Y87.065
G0 X77.794 Y87.061
G0 X77.989 Y87.99
G0 X78.384 Y88.639
G0 X78.977 Y89.115
G0 X79.7 Y89.361
G0 X83.609 Y88.791
G0 X83.666 Y88.872
;TYPE:WALL-INNER
G1 F1800 X83.069 Y89.332 E0.03384
G1 X82.512 Y89.841 E0.03388
G1 X82.003 Y90.398 E0.03388
G1 X81.543 Y90.995 E0.03384
G1 X81.138 Y91.633 E0.03393
G1 X80.79 Y92.302 E0.03386
G1 X80.5 Y93 E0.03394
G1 X80.274 Y93.719 E0.03384
G1 X80.111 Y94.455 E0.03385
G1 X80.011 Y95.204 E0.03393
G1 X79.979 Y95.944 E0.03326
G1 X79.979 Y178.277 E3.69685
G1 X80.011 Y179.01 E0.03294
G1 X80.109 Y179.754 E0.0337
G1 X80.271 Y180.485 E0.03362
G1 X80.496 Y181.198 E0.03357
G1 X80.783 Y181.889 E0.0336
G1 X81.128 Y182.553 E0.0336
G1 X81.53 Y183.185 E0.03363
G1 X81.986 Y183.778 E0.03359
G1 X82.491 Y184.33 E0.03359
G1 X83.043 Y184.835 E0.03359
G1 X83.636 Y185.291 E0.03359
G1 X84.268 Y185.693 E0.03363
G1 X84.932 Y186.038 E0.0336
G1 X85.623 Y186.325 E0.0336
G1 X86.336 Y186.55 E0.03357
G1 X87.067 Y186.712 E0.03362
G1 X87.811 Y186.81 E0.0337
G1 X88.544 Y186.842 E0.03294
G1 X171.385 Y186.842 E3.71966
G1 X172.125 Y186.81 E0.03326
G1 X172.874 Y186.71 E0.03393
G1 X173.61 Y186.547 E0.03385
G1 X174.329 Y186.321 E0.03384
G1 X175.027 Y186.031 E0.03394
G1 X175.696 Y185.683 E0.03386
G1 X176.334 Y185.278 E0.03393
G1 X176.931 Y184.818 E0.03384
G1 X177.488 Y184.309 E0.03388
G1 X177.997 Y183.752 E0.03388
G1 X178.457 Y183.155 E0.03384
G1 X178.862 Y182.517 E0.03393
G1 X179.21 Y181.848 E0.03386
G1 X179.5 Y181.15 E0.03394
G1 X179.726 Y180.431 E0.03384
G1 X179.889 Y179.695 E0.03385
G1 X179.989 Y178.946 E0.03393
G1 X180.021 Y178.206 E0.03326
G1 X180.021 Y95.944 E3.69366
G1 X179.989 Y95.204 E0.03326
G1 X179.889 Y94.455 E0.03393
G1 X179.726 Y93.719 E0.03385
G1 X179.5 Y93 E0.03384
G1 X179.21 Y92.302 E0.03394
G1 X178.862 Y91.633 E0.03386
G1 X178.457 Y90.995 E0.03393
G1 X177.997 Y90.398 E0.03384
G1 X177.488 Y89.841 E0.03388
G1 X176.931 Y89.332 E0.03388
G1 X176.334 Y88.872 E0.03384
G1 X175.696 Y88.467 E0.03393
G1 X175.027 Y88.119 E0.03386
G1 X174.329 Y87.829 E0.03394
G1 X173.61 Y87.603 E0.03384
G1 X172.874 Y87.44 E0.03385
G1 X172.125 Y87.34 E0.03393
G1 X171.385 Y87.308 E0.03326
G1 X88.615 Y87.308 E3.71647
G1 X87.875 Y87.34 E0.03326
G1 X87.126 Y87.44 E0.03393
G1 X86.39 Y87.603 E0.03385
G1 X85.671 Y87.829 E0.03384
G1 X84.973 Y88.119 E0.03394
G1 X84.304 Y88.467 E0.03386
G1 X83.666 Y88.872 E0.03393
G0 F2700 X83.896 Y89.2
;TYPE:WALL-OUTER
G1 F1800 X83.326 Y89.639 E0.0323
G1 X82.795 Y90.124 E0.03229
G1 X82.31 Y90.655 E0.03229
G1 X81.871 Y91.225 E0.0323
G1 X81.485 Y91.833 E0.03234
G1 X81.153 Y92.471 E0.03229
G1 X80.876 Y93.137 E0.03239
G1 X80.661 Y93.822 E0.03224
G1 X80.505 Y94.525 E0.03233
G1 X80.41 Y95.239 E0.03234
G1 X80.379 Y95.953 E0.03209
G1 X80.379 Y178.268 E3.69604
G1 X80.41 Y178.975 E0.03178
G1 X80.503 Y179.684 E0.03211
G1 X80.658 Y180.381 E0.03206
G1 X80.872 Y181.061 E0.03201
G1 X81.146 Y181.72 E0.03205
G1 X81.475 Y182.353 E0.03203
G1 X81.858 Y182.955 E0.03204
G1 X82.293 Y183.521 E0.03205
G1 X82.774 Y184.047 E0.032
G1 X83.3 Y184.528 E0.032
G1 X83.866 Y184.963 E0.03205
G1 X84.468 Y185.346 E0.03204
G1 X85.101 Y185.675 E0.03203
G1 X85.76 Y185.949 E0.03205
G1 X86.44 Y186.163 E0.03201
G1 X87.137 Y186.318 E0.03206
G1 X87.846 Y186.411 E0.03211
G1 X88.553 Y186.442 E0.03178
G1 X171.376 Y186.442 E3.71885
G1 X172.09 Y186.411 E0.03209
G1 X172.804 Y186.316 E0.03234
G1 X173.507 Y186.16 E0.03233
G1 X174.192 Y185.945 E0.03224
G1 X174.858 Y185.668 E0.03239
G1 X175.496 Y185.336 E0.03229
G1 X176.104 Y184.95 E0.03234
G1 X176.674 Y184.511 E0.0323
G1 X177.205 Y184.026 E0.03229
G1 X177.69 Y183.495 E0.03229
G1 X178.129 Y182.925 E0.0323
G1 X178.515 Y182.317 E0.03234
G1 X178.847 Y181.679 E0.03229
G1 X179.124 Y181.013 E0.03239
G1 X179.339 Y180.328 E0.03224
G1 X179.495 Y179.625 E0.03233
G1 X179.59 Y178.911 E0.03234
G1 X179.621 Y178.197 E0.03209
G1 X179.621 Y95.953 E3.69285
G1 X179.59 Y95.239 E0.03209
G1 X179.495 Y94.525 E0.03234
G1 X179.339 Y93.822 E0.03233
G1 X179.124 Y93.137 E0.03224
G1 X178.847 Y92.471 E0.03239
G1 X178.515 Y91.833 E0.03229
G1 X178.129 Y91.225 E0.03234
G1 X177.69 Y90.655 E0.0323
G1 X177.205 Y90.124 E0.03229
G1 X176.674 Y89.639 E0.03229
G1 X176.104 Y89.2 E0.0323
G1 X175.496 Y88.814 E0.03234
G1 X174.858 Y88.482 E0.03229
G1 X174.192 Y88.205 E0.03239
G1 X173.507 Y87.99 E0.03224
G1 X172.804 Y87.834 E0.03233
G1 X172.09 Y87.739 E0.03234
G1 X171.376 Y87.708 E0.03209
G1 X88.624 Y87.708 E3.71566
G1 X87.91 Y87.739 E0.03209
G1 X87.196 Y87.834 E0.03234
G1 X86.493 Y87.99 E0.03233
G1 X85.808 Y88.205 E0.03224
G1 X85.142 Y88.482 E0.03239
G1 X84.504 Y88.814 E0.03229
G1 X83.896 Y89.2 E0.03234
G0 F2700 X83.738 Y89.322
G0 X83.471 Y88.973
G0 X83.434 Y88.924
G0 X84.957 Y88.083
G0 X86.38 Y87.565
G0 X87.872 Y87.301
G0 X172.128 Y87.301
G0 X172.972 Y87.45
G0 X178.987 Y88.798
G0 X179.085 Y88.814
;TYPE:WALL-INNER
G1 F1800 X179.056 Y89.23 E0.01872
G1 X179.098 Y89.603 E0.01685
G1 X179.203 Y89.962 E0.01679
G1 X179.369 Y90.297 E0.01679
G1 X179.59 Y90.601 E0.01688
G1 X179.864 Y90.86 E0.01693
G1 X180.172 Y91.066 E0.01664
G1 X180.515 Y91.218 E0.01685
G1 X180.882 Y91.308 E0.01697
G1 X181.256 Y91.33 E0.01682
