;FLAVOR:RepRap
;TIME:4610
;Filament used: 4.15107m
;Layer height: 0.16
;MINX:71.85
;MINY:73.1
;MINZ:0.3
;MAXX:188.15
;MAXY:189.4
;MAXZ:7.5
;Generated with Cura_SteamEngine 4.6.1
T0
M190 S60
M104 S200
M109 S200
M82 ;absolute extrusion mode
G91 ; relative positioning
G1 Z1 ; move Z down 1mm
G90 ; absolute positioning
G28 XY ;Home xy
M561 ; clear bed transforms
G1 X100 Y65 ; naar het midden van bed
G28 Z ; home Z
G1 Z20.0 F6000 ;Move the platform down 20mm
;Prime the extruder
G1 X135 Y10
G92 E0
G1 F140 E30
G92 E0
M83 ;relative extrusion mode
G1 F1800 E-2
;LAYER_COUNT:46
;LAYER:0
M107 P1
G0 F2700 X178.336 Y73.145 Z0.3
;TYPE:SKIRT
G1 F1800 E2
G1 X178.861 Y73.201 E0.02371
G1 X179.389 Y73.282 E0.02399
G1 X179.924 Y73.393 E0.02453
G1 X180.7 Y73.607 E0.03614
G1 X181.183 Y73.77 E0.02289
G1 X181.671 Y73.965 E0.0236
G1 X182.421 Y74.321 E0.03728
G1 X182.873 Y74.568 E0.02313
G1 X183.468 Y74.943 E0.03158
G1 X184.005 Y75.335 E0.02985
G1 X184.391 Y75.645 E0.02223
G1 X184.943 Y76.15 E0.03359
G1 X185.337 Y76.559 E0.0255
G1 X185.685 Y76.956 E0.0237
G1 X186.118 Y77.514 E0.03171
G1 X186.494 Y78.072 E0.03021
G1 X186.93 Y78.829 E0.03922
G1 X187.159 Y79.293 E0.02323
G1 X187.361 Y79.762 E0.02293
G1 X187.642 Y80.546 E0.0374
G1 X187.796 Y81.075 E0.02474
G1 X187.952 Y81.77 E0.03198
G1 X188.048 Y82.386 E0.02799
G1 X188.104 Y82.895 E0.02299
G1 X188.147 Y83.945 E0.04719
G1 X188.15 Y178.041 E4.22502
G1 X188.137 Y178.984 E0.04235
G1 X188.104 Y179.584 E0.02698
G1 X188.049 Y180.118 E0.0241
G1 X187.972 Y180.612 E0.02245
G1 X187.852 Y181.191 E0.02655
G1 X187.649 Y181.933 E0.03454
G1 X187.483 Y182.425 E0.02331
G1 X187.228 Y183.048 E0.03023
G1 X186.952 Y183.624 E0.02868
G1 X186.676 Y184.134 E0.02604
G1 X186.304 Y184.722 E0.03124
G1 X185.915 Y185.255 E0.02963
G1 X185.607 Y185.639 E0.0221
G1 X185.102 Y186.19 E0.03356
G1 X184.683 Y186.592 E0.02607
G1 X184.238 Y186.98 E0.02651
G1 X183.798 Y187.321 E0.025
G1 X183.132 Y187.771 E0.03609
G1 X182.499 Y188.137 E0.03283
G1 X181.95 Y188.412 E0.02757
G1 X181.486 Y188.611 E0.02267
G1 X180.692 Y188.896 E0.03788
G1 X180.187 Y189.043 E0.02362
G1 X179.482 Y189.202 E0.03245
G1 X178.87 Y189.298 E0.02782
G1 X178.358 Y189.353 E0.02312
G1 X177.289 Y189.398 E0.04804
G1 X83.209 Y189.4 E4.2243
G1 X82.267 Y189.387 E0.0423
G1 X81.664 Y189.355 E0.02711
G1 X81.138 Y189.299 E0.02375
G1 X80.611 Y189.218 E0.02394
G1 X80.076 Y189.107 E0.02453
G1 X79.3 Y188.893 E0.03614
G1 X78.817 Y188.73 E0.02289
G1 X78.335 Y188.538 E0.0233
G1 X77.566 Y188.173 E0.03822
G1 X77.112 Y187.924 E0.02325
G1 X76.565 Y187.579 E0.02904
G1 X75.954 Y187.132 E0.03399
G1 X75.407 Y186.675 E0.032
G1 X74.946 Y186.238 E0.02852
G1 X74.565 Y185.833 E0.02497
G1 X74.068 Y185.234 E0.03495
G1 X73.766 Y184.823 E0.0229
G1 X73.459 Y184.353 E0.02521
G1 X73.074 Y183.678 E0.03489
G1 X72.837 Y183.197 E0.02408
G1 X72.58 Y182.584 E0.02985
G1 X72.374 Y181.999 E0.02785
G1 X72.207 Y181.433 E0.0265
G1 X72.048 Y180.73 E0.03236
G1 X71.954 Y180.125 E0.02749
G1 X71.895 Y179.587 E0.0243
G1 X71.852 Y178.528 E0.04759
G1 X71.85 Y84.413 E4.22587
G1 X71.863 Y83.516 E0.04028
G1 X71.896 Y82.915 E0.02703
G1 X71.952 Y82.381 E0.02411
G1 X72.028 Y81.885 E0.02253
G1 X72.148 Y81.309 E0.02642
G1 X72.351 Y80.567 E0.03454
G1 X72.52 Y80.067 E0.0237
G1 X72.772 Y79.452 E0.02984
G1 X73.048 Y78.876 E0.02868
G1 X73.327 Y78.362 E0.02626
G1 X73.696 Y77.778 E0.03102
G1 X74.085 Y77.245 E0.02963
G1 X74.393 Y76.861 E0.0221
G1 X74.904 Y76.303 E0.03397
G1 X75.312 Y75.91 E0.02544
G1 X75.706 Y75.565 E0.02351
G1 X76.264 Y75.132 E0.03171
G1 X76.822 Y74.756 E0.03021
G1 X77.579 Y74.32 E0.03922
G1 X78.043 Y74.091 E0.02323
G1 X78.512 Y73.889 E0.02293
G1 X79.308 Y73.604 E0.03796
G1 X79.813 Y73.457 E0.02362
G1 X80.518 Y73.298 E0.03245
G1 X81.13 Y73.202 E0.02782
G1 X81.642 Y73.147 E0.02312
G1 X82.711 Y73.102 E0.04804
G1 X176.791 Y73.1 E4.2243
G1 X177.734 Y73.113 E0.04235
G1 X178.336 Y73.145 E0.02707
G1 F1800 E-2
G0 F2700 X179.993 Y80.729
;TYPE:SUPPORT
G1 F1800 E2
G1 X180.069 Y80.734 E0.00342
G1 X180.177 Y80.76 E0.00499
G1 X180.271 Y80.801 E0.0046
G1 X180.38 Y80.873 E0.00587
G1 X180.445 Y80.934 E0.004
G1 X180.518 Y81.034 E0.00556
G1 X180.57 Y81.137 E0.00518
G1 X180.601 Y81.24 E0.00483
G1 X180.614 Y81.351 E0.00502
G1 X180.607 Y81.468 E0.00526
G1 X180.582 Y81.573 E0.00485
G1 X180.54 Y81.67 E0.00475
G1 X180.468 Y81.779 E0.00587
G1 X180.407 Y81.844 E0.004
G1 X180.307 Y81.917 E0.00556
G1 X180.204 Y81.969 E0.00518
G1 X180.101 Y82 E0.00483
G1 X179.99 Y82.013 E0.00502
G1 X179.873 Y82.006 E0.00526
G1 X179.765 Y81.98 E0.00499
G1 X179.671 Y81.939 E0.0046
G1 X179.562 Y81.867 E0.00587
G1 X179.497 Y81.806 E0.004
G1 X179.424 Y81.706 E0.00556
G1 X179.372 Y81.603 E0.00518
G1 X179.341 Y81.5 E0.00483
G1 X179.329 Y81.395 E0.00475
G1 X179.339 Y81.242 E0.00688
G1 X179.355 Y81.179 E0.00292
G1 X179.409 Y81.054 E0.00611
G1 X179.463 Y80.973 E0.00437
G1 X179.539 Y80.893 E0.00495
G1 X179.636 Y80.821 E0.00542
G1 X179.699 Y80.79 E0.00315
G1 X179.993 Y80.729 E0.01348
G1 F1800 E-2
G0 F2700 X181.228 Y178.503
G1 F1800 E2
G1 X181.306 Y178.507 E0.00351
G1 X181.409 Y178.532 E0.00476
G1 X181.513 Y178.577 E0.00509
G1 X181.607 Y178.639 E0.00506
G1 X181.681 Y178.71 E0.0046
G1 X181.755 Y178.81 E0.00559
G1 X181.804 Y178.906 E0.00484
G1 X181.838 Y179.02 E0.00534
G1 X181.85 Y179.122 E0.00461
G1 X181.842 Y179.242 E0.0054
G1 X181.817 Y179.347 E0.00485
G1 X181.773 Y179.449 E0.00499
G1 X181.714 Y179.538 E0.00479
G1 X181.632 Y179.626 E0.0054
G1 X181.545 Y179.69 E0.00485
G1 X181.438 Y179.743 E0.00536
G1 X181.335 Y179.774 E0.00483
G1 X181.224 Y179.787 E0.00502
G1 X181.109 Y179.78 E0.00517
G1 X180.999 Y179.754 E0.00508
G1 X180.906 Y179.713 E0.00456
G1 X180.796 Y179.641 E0.0059
G1 X180.732 Y179.58 E0.00397
G1 X180.659 Y179.48 E0.00556
G1 X180.607 Y179.377 E0.00518
G1 X180.576 Y179.274 E0.00483
G1 X180.564 Y179.168 E0.00479
G1 X180.574 Y179.018 E0.00675
G1 X180.591 Y178.955 E0.00293
G1 X180.644 Y178.831 E0.00606
G1 X180.698 Y178.749 E0.00441
G1 X180.781 Y178.662 E0.0054
G1 X180.87 Y178.595 E0.005
G1 X180.934 Y178.564 E0.00319
G1 X181.228 Y178.503 E0.01348
G0 F2700 X181.119 Y178.689
G1 F1800 X181.369 Y178.689 E0.01123
G0 F2700 X181.356 Y178.684
G1 F1800 X181.356 Y179.6 E0.04113
G1 F1800 E-2
G0 F2700 X80.673 Y181.112
G1 F1800 E2
G1 X80.666 Y181.227 E0.00517
G1 X80.64 Y181.337 E0.00508
G1 X80.599 Y181.43 E0.00456
G1 X80.528 Y181.538 E0.0058
G1 X80.466 Y181.604 E0.00407
G1 X80.366 Y181.677 E0.00556
G1 X80.263 Y181.729 E0.00518
G1 X80.16 Y181.76 E0.00483
G1 X80.048 Y181.773 E0.00506
G1 X79.926 Y181.766 E0.00549
G1 X79.828 Y181.742 E0.00453
G1 X79.73 Y181.699 E0.00481
G1 X79.622 Y181.628 E0.0058
G1 X79.556 Y181.566 E0.00407
G1 X79.483 Y181.466 E0.00556
G1 X79.431 Y181.363 E0.00518
G1 X79.4 Y181.26 E0.00483
G1 X79.388 Y181.155 E0.00475
G1 X79.398 Y181.001 E0.00693
G1 X79.415 Y180.939 E0.00289
G1 X79.467 Y180.816 E0.006
G1 X79.522 Y180.733 E0.00447
G1 X79.598 Y180.653 E0.00495
G1 X79.695 Y180.581 E0.00542
G1 X79.758 Y180.55 E0.00315
G1 X80.051 Y180.489 E0.01344
G1 X80.128 Y180.494 E0.00346
G1 X80.236 Y180.52 E0.00499
G1 X80.33 Y180.561 E0.0046
G1 X80.439 Y180.633 E0.00587
G1 X80.504 Y180.694 E0.004
G1 X80.579 Y180.796 E0.00568
G1 X80.628 Y180.891 E0.0048
G1 X80.66 Y181.001 E0.00514
G1 X80.673 Y181.112 E0.00502
G0 F2700 X80.454 Y181.356
G1 F1800 X79.605 Y181.356 E0.03812
G0 F2700 X80.01 Y181.61
G1 F1800 X80.01 Y180.661 E0.04261
G1 F1800 E-2
G0 F2700 X80.049 Y82.013
G1 F1800 E2
G1 X79.933 Y82.006 E0.00522
G1 X79.823 Y81.98 E0.00508
G1 X79.73 Y81.94 E0.00455
G1 X79.621 Y81.867 E0.00589
G1 X79.556 Y81.806 E0.004
G1 X79.481 Y81.704 E0.00568
G1 X79.431 Y81.605 E0.00498
G1 X79.4 Y81.499 E0.00496
G1 X79.388 Y81.395 E0.0047
G1 X79.398 Y81.242 E0.00688
G1 X79.414 Y81.179 E0.00292
G1 X79.468 Y81.054 E0.00611
G1 X79.522 Y80.973 E0.00437
G1 X79.598 Y80.893 E0.00495
G1 X79.695 Y80.821 E0.00542
G1 X79.758 Y80.79 E0.00315
G1 X80.052 Y80.729 E0.01348
G1 X80.127 Y80.734 E0.00338
G1 X80.237 Y80.76 E0.00508
G1 X80.33 Y80.801 E0.00456
G1 X80.438 Y80.872 E0.0058
G1 X80.504 Y80.934 E0.00407
G1 X80.577 Y81.034 E0.00556
G1 X80.629 Y81.137 E0.00518
G1 X80.66 Y81.24 E0.00483
G1 X80.673 Y81.352 E0.00506
G1 X80.666 Y81.474 E0.00549
G1 X80.642 Y81.572 E0.00453
G1 X80.599 Y81.67 E0.00481
G1 X80.528 Y81.778 E0.0058
G1 X80.466 Y81.844 E0.00407
G1 X80.366 Y81.917 E0.00556
G1 X80.263 Y81.969 E0.00518
G1 X80.16 Y82 E0.00483
G1 X80.049 Y82.013 E0.00502
G0 F2700 X80.01 Y81.85
G1 F1800 X80.01 Y80.901 E0.04261
G1 F1800 E-2
;MESH:e65cebfb-cbc6-4028-86fa-bba68615e1af.stl
G0 F2700 X77.994 Y80.684
G0 X77.908 Y81.005
;TYPE:WALL-INNER
G1 F1800 E2
G1 X77.882 Y81.427 E0.01898
G1 X77.925 Y81.801 E0.0169
G1 X78.031 Y82.16 E0.01681
G1 X78.199 Y82.495 E0.01683
G1 X78.422 Y82.795 E0.01678
G1 X78.694 Y83.053 E0.01683
G1 X79.005 Y83.259 E0.01675
G1 X79.351 Y83.411 E0.01697
G1 X79.716 Y83.497 E0.01684
G1 X80.09 Y83.518 E0.01682
G1 X80.46 Y83.475 E0.01673
G1 X80.819 Y83.37 E0.01679
G1 X81.155 Y83.201 E0.01689
G1 X81.455 Y82.978 E0.01678
G1 X81.714 Y82.706 E0.01686
G1 X81.919 Y82.394 E0.01676
G1 X82.069 Y82.051 E0.01681
G1 X82.157 Y81.685 E0.0169
G1 X82.178 Y81.31 E0.01686
G1 X82.135 Y80.94 E0.01673
G1 X82.03 Y80.581 E0.01679
G1 X81.861 Y80.245 E0.01689
G1 X81.638 Y79.945 E0.01678
G1 X81.366 Y79.686 E0.01686
G1 X81.054 Y79.481 E0.01676
G1 X80.711 Y79.331 E0.01681
G1 X80.344 Y79.243 E0.01695
G1 X79.97 Y79.222 E0.01682
G1 X79.599 Y79.265 E0.01677
G1 X79.24 Y79.371 E0.01681
G1 X78.905 Y79.539 E0.01683
G1 X78.605 Y79.762 E0.01678
G1 X78.347 Y80.034 E0.01683
G1 X78.139 Y80.346 E0.01684
G1 X77.994 Y80.684 E0.01651
G1 X77.908 Y81.005 E0.01492
G0 F2700 X78.305 Y81.07
;TYPE:WALL-OUTER
G1 F1800 X78.283 Y81.417 E0.01561
G1 X78.318 Y81.721 E0.01374
G1 X78.404 Y82.012 E0.01362
G1 X78.541 Y82.285 E0.01371
G1 X78.722 Y82.529 E0.01364
G1 X78.944 Y82.739 E0.01372
G1 X79.197 Y82.907 E0.01364
G1 X79.478 Y83.03 E0.01377
G1 X79.774 Y83.1 E0.01366
G1 X80.078 Y83.117 E0.01367
G1 X80.38 Y83.082 E0.01365
G1 X80.672 Y82.996 E0.01367
G1 X80.945 Y82.859 E0.01371
G1 X81.189 Y82.678 E0.01364
G1 X81.399 Y82.456 E0.01372
G1 X81.566 Y82.203 E0.01361
G1 X81.688 Y81.923 E0.01371
G1 X81.76 Y81.626 E0.01372
G1 X81.777 Y81.322 E0.01367
G1 X81.742 Y81.02 E0.01365
G1 X81.656 Y80.728 E0.01367
G1 X81.519 Y80.455 E0.01371
G1 X81.338 Y80.211 E0.01364
G1 X81.116 Y80.001 E0.01372
G1 X80.863 Y79.834 E0.01361
G1 X80.583 Y79.712 E0.01371
G1 X80.285 Y79.64 E0.01377
G1 X79.982 Y79.623 E0.01363
G1 X79.679 Y79.658 E0.0137
G1 X79.388 Y79.744 E0.01362
G1 X79.115 Y79.881 E0.01371
G1 X78.871 Y80.062 E0.01364
G1 X78.661 Y80.284 E0.01372
G1 X78.492 Y80.537 E0.01366
G1 X78.373 Y80.815 E0.01358
G1 X78.305 Y81.07 E0.01185
G0 F2700 X78.293 Y81.27
G0 X77.853 Y81.243
G0 X77.794 Y81.239
G0 X77.81 Y180.748
G0 X77.908 Y180.764
;TYPE:WALL-INNER
G1 F1800 X77.882 Y181.187 E0.01903
G1 X77.925 Y181.56 E0.01686
G1 X78.03 Y181.919 E0.01679
G1 X78.199 Y182.255 E0.01689
G1 X78.422 Y182.555 E0.01678
G1 X78.694 Y182.814 E0.01686
G1 X79.006 Y183.019 E0.01676
G1 X79.349 Y183.169 E0.01681
G1 X79.715 Y183.257 E0.0169
G1 X80.09 Y183.278 E0.01686
G1 X80.46 Y183.235 E0.01673
G1 X80.819 Y183.13 E0.01679
G1 X81.155 Y182.961 E0.01689
G1 X81.455 Y182.738 E0.01678
G1 X81.714 Y182.466 E0.01686
G1 X81.919 Y182.154 E0.01676
G1 X82.069 Y181.811 E0.01681
G1 X82.157 Y181.444 E0.01695
G1 X82.178 Y181.07 E0.01682
G1 X82.135 Y180.699 E0.01677
G1 X82.029 Y180.34 E0.01681
G1 X81.861 Y180.005 E0.01683
G1 X81.638 Y179.705 E0.01678
G1 X81.366 Y179.447 E0.01683
G1 X81.055 Y179.241 E0.01675
G1 X80.709 Y179.089 E0.01697
G1 X80.343 Y179.003 E0.01688
G1 X79.971 Y178.981 E0.01673
G1 X79.598 Y179.024 E0.01686
G1 X79.239 Y179.131 E0.01682
G1 X78.904 Y179.299 E0.01683
G1 X78.605 Y179.522 E0.01675
G1 X78.347 Y179.794 E0.01683
G1 X78.139 Y180.106 E0.01684
G1 X77.994 Y180.444 E0.01651
G1 X77.908 Y180.764 E0.01488
G0 F2700 X78.305 Y180.829
;TYPE:WALL-OUTER
G1 F1800 X78.283 Y181.177 E0.01566
G1 X78.318 Y181.48 E0.0137
G1 X78.404 Y181.772 E0.01367
G1 X78.541 Y182.045 E0.01371
G1 X78.722 Y182.289 E0.01364
G1 X78.944 Y182.499 E0.01372
G1 X79.197 Y182.666 E0.01361
G1 X79.477 Y182.788 E0.01371
G1 X79.774 Y182.86 E0.01372
G1 X80.078 Y182.877 E0.01367
G1 X80.38 Y182.842 E0.01365
G1 X80.672 Y182.756 E0.01367
G1 X80.945 Y182.619 E0.01371
G1 X81.189 Y182.438 E0.01364
G1 X81.399 Y182.216 E0.01372
G1 X81.566 Y181.963 E0.01361
G1 X81.688 Y181.683 E0.01371
G1 X81.76 Y181.385 E0.01377
G1 X81.777 Y181.082 E0.01363
G1 X81.742 Y180.779 E0.0137
G1 X81.656 Y180.488 E0.01362
G1 X81.519 Y180.215 E0.01371
G1 X81.338 Y179.971 E0.01364
G1 X81.116 Y179.761 E0.01372
G1 X80.863 Y179.593 E0.01364
G1 X80.582 Y179.47 E0.01377
G1 X80.285 Y179.4 E0.0137
G1 X79.982 Y179.382 E0.01363
G1 X79.679 Y179.417 E0.0137
G1 X79.387 Y179.504 E0.01368
G1 X79.115 Y179.641 E0.01367
G1 X78.871 Y179.822 E0.01364
G1 X78.661 Y180.044 E0.01372
G1 X78.492 Y180.297 E0.01366
G1 X78.373 Y180.575 E0.01358
G1 X78.305 Y180.829 E0.01181
G0 F2700 X78.293 Y181.029
G0 X77.853 Y181.002
G0 X77.794 Y180.998
G0 X78.104 Y180.087
G0 X78.579 Y179.493
G0 X79.225 Y179.094
G0 X79.97 Y178.942
G0 X80.721 Y179.052
G0 X81.39 Y179.416
G0 X177.223 Y179.89
G0 X177.207 Y179.792
;TYPE:WALL-INNER
G1 F1800 X177.587 Y179.682 E0.01776
G1 X177.891 Y179.528 E0.0153
G1 X178.164 Y179.328 E0.0152
G1 X178.398 Y179.08 E0.01531
G1 X178.586 Y178.796 E0.01529
G1 X178.722 Y178.482 E0.01536
G1 X178.797 Y178.161 E0.0148
G1 X178.821 Y177.896 E0.01195
G1 X178.821 Y85.059 E4.16849
G1 X178.818 Y84.558 E0.0225
G1 X178.781 Y84.242 E0.01429
G1 X178.685 Y83.915 E0.0153
G1 X178.532 Y83.613 E0.0152
G1 X178.332 Y83.34 E0.0152
G1 X178.084 Y83.106 E0.01531
G1 X177.8 Y82.918 E0.01529
G1 X177.486 Y82.782 E0.01536
G1 X177.146 Y82.702 E0.01568
G1 X176.468 Y82.683 E0.03045
G1 X83.555 Y82.683 E4.1719
G1 X83.054 Y82.686 E0.0225
G1 X82.738 Y82.723 E0.01429
G1 X82.411 Y82.819 E0.0153
G1 X82.109 Y82.972 E0.0152
G1 X81.836 Y83.172 E0.0152
G1 X81.602 Y83.42 E0.01531
G1 X81.414 Y83.704 E0.01529
G1 X81.278 Y84.018 E0.01536
G1 X81.198 Y84.358 E0.01568
G1 X81.179 Y85.036 E0.03045
G1 X81.179 Y177.456 E4.14977
G1 X81.182 Y177.942 E0.02182
G1 X81.219 Y178.258 E0.01429
G1 X81.315 Y178.585 E0.0153
G1 X81.468 Y178.887 E0.0152
G1 X81.668 Y179.16 E0.0152
G1 X81.916 Y179.394 E0.01531
G1 X82.2 Y179.582 E0.01529
G1 X82.514 Y179.718 E0.01536
G1 X82.855 Y179.798 E0.01573
G1 X83.546 Y179.817 E0.03104
G1 X176.756 Y179.817 E4.18524
G1 X177.207 Y179.792 E0.02028
G0 F2700 X177.139 Y179.395
;TYPE:WALL-OUTER
G1 F1800 X177.44 Y179.308 E0.01407
G1 X177.681 Y179.186 E0.01213
G1 X177.898 Y179.027 E0.01208
G1 X178.084 Y178.83 E0.01217
G1 X178.233 Y178.605 E0.01212
G1 X178.341 Y178.356 E0.01219
G1 X178.401 Y178.097 E0.01194
G1 X178.421 Y177.878 E0.00987
G1 X178.421 Y85.06 E4.16764
G1 X178.418 Y84.582 E0.02146
G1 X178.388 Y84.322 E0.01175
G1 X178.312 Y84.063 E0.01212
G1 X178.19 Y83.823 E0.01209
G1 X178.031 Y83.606 E0.01208
G1 X177.834 Y83.42 E0.01217
G1 X177.609 Y83.271 E0.01212
G1 X177.36 Y83.163 E0.01219
G1 X177.094 Y83.101 E0.01226
G1 X176.462 Y83.083 E0.02839
G1 X83.556 Y83.083 E4.17159
G1 X83.078 Y83.086 E0.02146
G1 X82.818 Y83.116 E0.01175
G1 X82.559 Y83.192 E0.01212
G1 X82.319 Y83.314 E0.01209
G1 X82.102 Y83.473 E0.01208
G1 X81.916 Y83.67 E0.01217
G1 X81.767 Y83.895 E0.01212
G1 X81.659 Y84.144 E0.01219
G1 X81.597 Y84.41 E0.01226
G1 X81.579 Y85.042 E0.02839
G1 X81.579 Y177.455 E4.14945
G1 X81.582 Y177.918 E0.02079
G1 X81.612 Y178.178 E0.01175
G1 X81.688 Y178.437 E0.01212
G1 X81.81 Y178.677 E0.01209
G1 X81.969 Y178.894 E0.01208
G1 X82.166 Y179.08 E0.01217
G1 X82.391 Y179.229 E0.01212
G1 X82.64 Y179.337 E0.01219
G1 X82.906 Y179.399 E0.01226
G1 X83.552 Y179.417 E0.02902
G1 X176.745 Y179.417 E4.18448
G1 X177.139 Y179.395 E0.01772
G0 F2700 X177.331 Y179.34
G0 X177.452 Y179.763
G0 X177.467 Y179.821
G0 X178.986 Y178.76
G0 X179.084 Y178.776
;TYPE:WALL-INNER
G1 F1800 X179.058 Y179.201 E0.01912
G1 X179.101 Y179.574 E0.01686
G1 X179.206 Y179.933 E0.01679
G1 X179.375 Y180.269 E0.01689
G1 X179.598 Y180.569 E0.01678
G1 X179.87 Y180.828 E0.01686
G1 X180.182 Y181.033 E0.01676
G1 X180.525 Y181.183 E0.01681
G1 X180.892 Y181.271 E0.01695
G1 X181.266 Y181.292 E0.01682
G1 X181.637 Y181.249 E0.01677
